public/browse.svg

<svg width="17" height="17" viewBox="0 0 17 17" fill="none" xmlns="http://www.w3.org/2000/svg">
<path d="M7.7975 8.21316H0.4375V2.87983C0.4375 2.34649 0.633056 1.88427 1.02417 1.49316C1.41528 1.10205 1.89528 0.906494 2.46417 0.906494H7.7975V8.21316ZM1.77083 6.87983H6.46417V2.23983H2.46417C2.25083 2.23983 2.08194 2.30205 1.9575 2.42649C1.83306 2.55094 1.77083 2.70205 1.77083 2.87983V6.87983ZM16.4375 8.21316H9.13083V0.906494H14.4642C14.9975 0.906494 15.4597 1.10205 15.8508 1.49316C16.2419 1.88427 16.4375 2.36427 16.4375 2.93316V8.21316ZM10.4642 6.87983H15.1042V2.87983C15.1042 2.70205 15.0419 2.55094 14.9175 2.42649C14.7931 2.30205 14.6419 2.23983 14.4642 2.23983H10.4642V6.87983ZM7.7975 16.9065H2.46417C1.89528 16.9065 1.41528 16.7109 1.02417 16.3198C0.633056 15.9287 0.4375 15.4665 0.4375 14.9332V9.54649H7.7975V16.9065ZM1.77083 10.8798V14.8798C1.77083 15.0932 1.83306 15.262 1.9575 15.3865C2.08194 15.5109 2.25083 15.5732 2.46417 15.5732H6.46417V10.8798H1.77083ZM14.4642 16.9065H9.13083V9.54649H16.4375V14.8798C16.4375 15.4487 16.2419 15.9287 15.8508 16.3198C15.4597 16.7109 14.9797 16.9065 14.4108 16.9065H14.4642ZM10.4642 15.5732H14.4642C14.6419 15.5732 14.7931 15.5109 14.9175 15.3865C15.0419 15.262 15.1042 15.0932 15.1042 14.8798V10.8798H10.4642V15.5732Z" fill="white"/>
</svg>

<svg xmlns="http://www.w3.org/2000/svg" width="17" height="17" fill="none"><path fill="#fff" d="M7.798 8.213H.438V2.88q0-.8.586-1.387a1.96 1.96 0 0 1 1.44-.587h5.334zM1.77 6.88h4.693V2.24h-4q-.32 0-.506.186a.62.62 0 0 0-.187.454zm14.667 1.333H9.13V.906h5.333q.8 0 1.387.587.585.587.586 1.44zM10.464 6.88h4.64v-4a.62.62 0 0 0-.186-.454.62.62 0 0 0-.454-.186h-4zM7.798 16.907H2.464a1.96 1.96 0 0 1-1.44-.587 1.9 1.9 0 0 1-.586-1.387V9.546h7.36zM1.77 10.88v4q0 .32.187.506.186.187.506.187h4V10.88zm12.693 6.027H9.131v-7.36h7.307v5.333q0 .854-.587 1.44a1.96 1.96 0 0 1-1.44.587zm-4-1.334h4a.62.62 0 0 0 .454-.187q.186-.186.186-.506v-4h-4.64z"/></svg>
